svgs/duotone/taxi-bus.svg

<svg xmlns="http://www.w3.org/2000/svg" viewBox="0 0 640 512"><!-- Font Awesome Pro 6.0.0-alpha2 by @fontawesome - https://fontawesome.com License - https://fontawesome.com/license (Commercial License) --><defs><style>.fa-secondary{opacity:.4}</style></defs><path d="M176 0C77.999 0 0 27.625 0 62.875V354.625C0 370.875 13.125 384 29.375 384H48V416C48 433.672 62.328 448 80 448H96C113.672 448 128 433.672 128 416V384H192V342C192 312.559 206.988 286.141 231.27 271.004L246.936 224H192V80H273.375C281.375 80 288 86.625 288 94.625V153.496C301.744 142.074 318.123 133.92 336 130.252V128C336 113.871 342.25 101.277 352 92.484V62.875C352 27.625 273.999 0 176 0ZM80 328C66.75 328 56 317.25 56 304S66.75 280 80 280S104 290.75 104 304S93.25 328 80 328ZM160 224H78.625C70.625 224 64 217.375 64 209.375V94.625C64 86.625 70.625 80 78.625 80H160V224Z" class="fa-secondary"/><path d="M606.516 293.551L579.781 213.334C569.164 181.482 539.359 160 505.785 160H496V128C496 119.162 488.836 112 480 112H384C375.164 112 368 119.162 368 128V160H358.219C324.645 160 294.836 181.486 284.219 213.34L257.484 293.551C237.938 301.029 224 319.826 224 342V480C224 497.672 238.328 512 256 512H272C289.672 512 304 497.672 304 480V447H560V480C560 497.672 574.328 512 592 512H608C625.672 512 640 497.672 640 480V342C640 319.826 626.062 301.029 606.516 293.551ZM344.934 233.576C346.844 227.848 352.184 224 358.219 224H505.785C511.82 224 517.156 227.846 519.062 233.57L537.203 288H326.797L344.934 233.576ZM304 392C290.746 392 280 381.254 280 368C280 354.744 290.746 344 304 344S328 354.744 328 368C328 381.254 317.254 392 304 392ZM560 392C546.746 392 536 381.254 536 368C536 354.744 546.746 344 560 344S584 354.744 584 368C584 381.254 573.254 392 560 392Z" class="fa-primary"/></svg>

<svg xmlns="http://www.w3.org/2000/svg" viewBox="0 0 640 512"><!--! Font Awesome Pro 6.0.0-alpha3 by @fontawesome - https://fontawesome.com License - https://fontawesome.com/license (Commercial License) --><defs><style>.fa-secondary{opacity:.4}</style></defs><path class="fa-primary" d="M606.5 293.6L579.8 213.3C569.2 181.5 539.4 160 505.8 160H496V128c0-8.838-7.164-16-16-16h-96c-8.836 0-16 7.162-16 16v32h-9.781c-33.57 0-63.38 21.49-74 53.34L257.5 293.6C237.9 301 224 319.8 224 342V480c0 17.67 14.33 32 32 32h16c17.67 0 32-14.33 32-32v-33h256V480c0 17.67 14.33 32 32 32H608c17.67 0 32-14.33 32-32v-137.1C640 319.8 626.1 301 606.5 293.6zM344.9 233.6C346.8 227.8 352.2 224 358.2 224h147.6c6.035 0 11.37 3.846 13.28 9.57L537.2 288h-210.4L344.9 233.6zM304 392c-13.25 0-24-10.75-24-24c0-13.26 10.75-24 24-24s24 10.74 24 24C328 381.3 317.3 392 304 392zM560 392c-13.25 0-24-10.75-24-24c0-13.26 10.75-24 24-24s24 10.74 24 24C584 381.3 573.3 392 560 392z"/><path class="fa-secondary" d="M176 0C77.1 0 0 27.62 0 62.88v291.8C0 370.9 13.12 384 29.38 384H48v32c0 17.67 14.33 32 32 32H96c17.67 0 32-14.28 32-31.96v-31.96h64v-42.09c0-29.44 14.99-55.86 39.27-70.1L246.9 224H192V80h81.38C281.4 80 288 86.63 288 94.63v58.87c13.74-11.42 30.12-19.58 48-23.24V128c0-14.13 6.25-26.72 16-35.52v-29.61C352 27.62 273.1 0 176 0zM80 328c-13.25 0-24-10.75-24-24S66.75 280 80 280s24 10.75 24 23.1S93.25 328 80 328zM160 224H78.63C70.63 224 64 217.4 64 209.4V94.63C64 86.63 70.63 80 78.63 80H160V224z"/></svg>
